X: 57
T: I'LL MEND YOUR POTS AND KETTLES
B: O'Neill's 57
M: C
L: 1/8
Z: 1999 by John Chambers <jc@trillian.mit.edu>
N: "Playfully"
N: "Collected by J.O'Neill"
K:D
(FG) \
| .A.d.d.d .e.c.d.c | .A.d.d.d cA2G | .A.d.d.d .e.c.d.c | AGEG FD2(F/G/) |
| Addd ecdc | Addd cA2(d/e/) | fdec dA2B | AGEG FD2 ||
|| G \
| .F.F.G.G .A.A.A.G | .F.A.G.E ED2G | .F.F.G.G AA d(c/d/) | efed cA2(A/G/) |
| FFGG AA Hd(d/e/) | fdec Hd3 (d/e/) | fdec dA2B | AGEG FD2 ||


